X:016
T:Boys on the Hilltop (reel) 
B:CRE3.084 (BuachaillÃÂÃÂÃÂÃÂ­ ar Bharr an Chnoic)
F:file ID: cre.3/016boys_h
R:reel
Q:180
M:C
L:1/8
K:Am
A3c B2AG|EG~G2 G2AG|EA (3ABA BABd|dbgA ~B2dB|
A3c B2AG|EG~G2 G2AB|(3cBc ed B2AB|(3ede GA BAA2||
A2Bd egdB|GBdB de^fg|a2ed egdB|GBdB BAA2|
a2ed egdB|GBdB de^fg|(3ag^f (3gfe fdef|gba^f gedB||

%%%

